X:115
T:ESPAGNOLETTE de MONTBRANT
Z: Yves BELOTTEAU
M:6/8
L:1/8
Q:1/4=202
K:C
|c3/2 z/2 d edc|A3/2 z/2 B c5/2 z/2 |def gfe|dgf e3/2 z/2 d|
c3/2 z/2 d edc|A3/2 z/2 B c5/2 z/2 |def gfe|def g5/2 z/2 |
c3/2 z/2 d edc|A3/2 z/2 B c5/2 z/2 |def gfe|dgf e3/2 z/2 d|
c3/2 z/2 d edc|A3/2 z/2 B c5/2 z/2 |def gfe|def g5/2 z/2 |
c3/2 z/2 d edc|A3/2 z/2 B c5/2 z/2 |def gfe|dgf e3/2 z/2 d|
c3/2 z/2 d edc|A3/2 z/2 B c5/2 z/2 |def gfe|def g5/2 z/2 |
c3/2 z/2 e g3/2 z/2 g|geg e3/2 z/2 c|d3/2 z/2 e d3/2 z/2 g|gfe ded|
c3/2 z/2 e g3/2 z/2 g|geg e3/2 z/2 c|d3/2 z/2 e d3/2 z/2 g|fed c5/2 z/2
|
c3/2 z/2 e g3/2 z/2 g|geg e3/2 z/2 c|d3/2 z/2 e d3/2 z/2 g|gfe ded|
c3/2 z/2 e g3/2 z/2 g|geg e3/2 z/2 c|d3/2 z/2 e d3/2 z/2 g|fed c5/2|
